MattressStudy/Raw Logos/leesa.svg

<?xml version="1.0" encoding="UTF-8"?>
<svg width="90px" height="24px" viewBox="0 0 90 24" version="1.1" xmlns="http://www.w3.org/2000/svg" xmlns:xlink="http://www.w3.org/1999/xlink">
    <title>5. Logo/1 - Leesa</title>
    <g id="5.-Logo/1---Leesa" stroke="none" stroke-width="1" fill="none" fill-rule="evenodd">
        <path d="M4.28037135,21.8076923 L13.1490716,21.8076923 L13.1490716,23.9562334 L0,23.9562334 L0,1.44668435 L2.12944297,0.417771883 L2.99124668,0 L4.28037135,0 L4.28037135,21.8076923 Z M31.2732095,17.3649867 L32.6005305,17.9045093 C31.7888594,20.7 29.3275862,22.8771883 26.6156499,23.8440318 C23.4763926,24.9803714 19.7618037,24.1090186 17.3482759,21.9342175 C15.6722868,20.4621355 14.7010785,18.3470019 14.6769231,16.1164456 C14.631565,12.3732095 16.5628647,8.81140584 20.0578249,7.37904509 C22.1084881,6.4862069 25.0257294,6.42413793 27.1360743,7.25490716 C29.9864721,8.30291777 32.1660477,10.9384615 32.0848806,14.0013263 L18.4774536,14.0013263 C18.4488064,17.696817 20.7692308,21.5427056 24.7464191,21.5092838 C27.3485411,21.5092838 30.306366,20.0172414 31.2159151,17.5225464 C31.2159151,17.5225464 30.795756,18.6206897 31.2732095,17.3649867 Z M22.6790451,8.20981432 C20.468435,8.20981432 18.7161804,10.2103448 18.5108753,12.3445623 L27.231565,12.3588859 C27.195756,9.97161804 25.004244,8.16445623 22.6790451,8.20981432 M68.1278515,15.8251989 C66.0366048,14.168435 63.0859416,13.633687 60.8180371,12.3230769 C57.7432361,10.4848806 59.5503979,8.00689655 62.5774536,8.08090186 C64.7259947,8.08090186 66.3636605,9.34376658 67.571618,11.2177719 L69.1615385,9.92148541 C67.2970822,7.66312997 65.5185676,6.60079576 62.6132626,6.66763926 C59.6816976,6.59840849 56.2488064,8.24323607 56.2344828,11.4588859 C56.2917772,15.8562334 61.5915119,16.4721485 64.5159151,18.338992 C65.9864721,19.2175066 66.6214854,21.0007958 65.0769231,22.1586207 C63.6636605,23.1851459 61.529443,23.0657825 60.0636605,22.1729443 C59.0538462,21.5546419 58.2899204,20.6761273 57.502122,19.6639257 L55.7832891,21.0962865 C57.1583554,22.8055703 58.9774536,23.9442971 61.0710875,24.237931 C64.1506631,24.6175066 67.9535809,24.1328912 69.4050398,21.2061008 C70.2954907,19.2557029 69.8538462,17.1477454 68.1302387,15.834748 M90,23.9848806 L85.6002653,23.970557 C84.733687,23.569496 83.9291777,22.8055703 83.8312997,21.8220159 C82.5732095,22.7482759 81.3915119,23.6960212 79.8087533,24.0875332 C77.4549072,24.7297082 74.2941645,24.2498674 73.2628647,21.733687 C72.4440318,19.8549072 73.1267905,17.6753316 74.7143236,16.4267905 C77.2328912,14.4047745 80.7183024,13.6718833 83.8169761,12.9246684 C83.8169761,11.5519894 83.895756,9.94297082 83.1175066,8.90450928 C82.3488064,7.92572944 80.6514589,7.8994695 79.5533156,8.33872679 C78.2594164,8.8734748 77.4334218,10.1482759 77.2687003,11.5161804 L73.6472149,11.5161804 C74.0602122,7.97586207 78.166313,6.65570292 81.3103448,6.66283576 C83.7763926,6.6938992 86.4787798,7.04005305 87.4360743,9.36047745 C87.656631,9.96033318 87.7658477,10.5954084 87.7583554,11.2344828 L87.7583554,21.5474801 C87.7392573,22.5334218 88.5175066,23.2997347 89.3649867,23.6960212 L90,23.9848806 Z M83.8169761,14.3236074 C81.6135279,15.0183024 78.4241379,16.1140584 77.132626,18.1122016 C76.3233422,19.4633952 77.2615385,21.2156499 78.5960212,21.8029178 C80.4891247,22.5405836 82.2915119,21.296817 83.8050398,20.2702918 L83.8050398,14.3236074 M51.9469496,17.3649867 L53.2790451,17.9045093 C52.4697613,20.7 50.0084881,22.8771883 47.2965517,23.8440318 C44.1572944,24.9803714 40.4427056,24.1090186 38.0291777,21.9342175 C36.3519572,20.4610283 35.380629,18.3438975 35.3578249,16.1116711 C35.3124668,12.368435 37.2437666,8.8066313 40.7387268,7.37427056 C42.7893899,6.48143236 45.7066313,6.4193634 47.8169761,7.25013263 C50.6649867,8.29814324 52.8445623,10.933687 52.7633952,13.9965517 L39.1511936,13.9965517 C39.1225464,17.6920424 41.4334218,21.537931 45.4177719,21.5045093 C48.0222812,21.5045093 50.9801061,20.0124668 51.8896552,17.5177719 C51.896817,17.5225464 51.469496,18.6206897 51.9469496,17.3649867 Z M43.3527851,8.20981432 C41.1397878,8.20981432 39.3875332,10.2103448 39.1846154,12.3445623 L47.905305,12.3588859 C47.869496,9.97161804 45.6755968,8.16445623 43.3527851,8.20981432 M87.8514589,4.29708223 C89.0380654,4.29708223 90,3.33514761 90,2.14854111 C90,0.961934622 89.0380654,0 87.8514589,0 C86.6648524,0 85.7029178,0.961934622 85.7029178,2.14854111 C85.7029178,3.33514761 86.6648524,4.29708223 87.8514589,4.29708223 M87.8514589,0.39867374 C88.817884,0.39867374 89.6013263,1.18211605 89.6013263,2.14854111 C89.6013263,3.11496618 88.817884,3.89840849 87.8514589,3.89840849 C86.8850338,3.89840849 86.1015915,3.11496618 86.1015915,2.14854111 C86.1029065,1.18266127 86.885579,0.399988759 87.8514589,0.39867374 M88.297878,3.21564987 L87.7822281,2.42546419 L87.4241379,2.41352785 L87.4241379,3.21564987 L86.9753316,3.21564987 L86.9753316,1.08143236 C87.1925729,1.08143236 88.0758621,1.04323607 88.2668435,1.12440318 C88.53903,1.21238354 88.7224764,1.46702116 88.7197418,1.75306061 C88.7170072,2.03910006 88.528726,2.29018387 88.2549072,2.3729443 L88.806366,3.21564987 L88.297878,3.21564987 Z M87.4241379,2.02201592 L87.9732095,2.02201592 C88.0492168,2.0289535 88.1245245,2.00278133 88.1798474,1.95020175 C88.2351702,1.89762218 88.2651353,1.82374168 88.262069,1.74748011 C88.2669947,1.66855373 88.2364126,1.59155193 88.1786776,1.53751202 C88.1209427,1.48347211 88.0420892,1.45804216 87.9636605,1.46816976 L87.4241379,1.46816976 L87.4241379,2.02201592 Z" id="Shape" fill="#0E3739" fill-rule="nonzero"></path>
    </g>
</svg>

<?xml version="1.0" encoding="utf-8"?>
<!-- Generator: Adobe Illustrator 27.2.0, SVG Export Plug-In . SVG Version: 6.00 Build 0)  -->
<svg version="1.1" id="Layer_1" xmlns="http://www.w3.org/2000/svg" xmlns:xlink="http://www.w3.org/1999/xlink" x="0px" y="0px"
	 viewBox="0 0 90 24.35" style="enable-background:new 0 0 90 24.35;" xml:space="preserve">
<style type="text/css">
	.st0{fill:#0E3739;}
</style>
<g id="_x35_.-Logo_x2F_1---Leesa">
	<path id="Shape" class="st0" d="M4.28,21.81h8.87v2.15H0V1.45l2.13-1.03L2.99,0h1.29V21.81z M31.27,17.36l1.33,0.54
		c-0.81,2.8-3.27,4.97-5.98,5.94c-3.14,1.14-6.85,0.26-9.27-1.91c-1.68-1.47-2.65-3.59-2.67-5.82c-0.05-3.74,1.89-7.31,5.38-8.74
		c2.05-0.89,4.97-0.95,7.08-0.12c2.85,1.05,5.03,3.68,4.95,6.75H18.48c-0.03,3.7,2.29,7.54,6.27,7.51c2.6,0,5.56-1.49,6.47-3.99
		C31.22,17.52,30.8,18.62,31.27,17.36z M22.68,8.21c-2.21,0-3.96,2-4.17,4.13l8.72,0.01C27.2,9.97,25,8.16,22.68,8.21 M68.13,15.83
		c-2.09-1.66-5.04-2.19-7.31-3.5c-3.07-1.84-1.27-4.32,1.76-4.24c2.15,0,3.79,1.26,4.99,3.14l1.59-1.3
		c-1.86-2.26-3.64-3.32-6.55-3.25c-2.93-0.07-6.36,1.58-6.38,4.79c0.06,4.4,5.36,5.01,8.28,6.88c1.47,0.88,2.11,2.66,0.56,3.82
		c-1.41,1.03-3.55,0.91-5.01,0.01c-1.01-0.62-1.77-1.5-2.56-2.51l-1.72,1.43c1.38,1.71,3.19,2.85,5.29,3.14
		c3.08,0.38,6.88-0.11,8.33-3.03C70.3,19.26,69.85,17.15,68.13,15.83 M90,23.98l-4.4-0.01c-0.87-0.4-1.67-1.16-1.77-2.15
		c-1.26,0.93-2.44,1.87-4.02,2.27c-2.35,0.64-5.51,0.16-6.55-2.35c-0.82-1.88-0.14-4.06,1.45-5.31c2.52-2.02,6-2.75,9.1-3.5
		c0-1.37,0.08-2.98-0.7-4.02c-0.77-0.98-2.47-1.01-3.56-0.57c-1.29,0.53-2.12,1.81-2.28,3.18h-3.62c0.41-3.54,4.52-4.86,7.66-4.85
		c2.47,0.03,5.17,0.38,6.13,2.7c0.22,0.6,0.33,1.23,0.32,1.87v10.31c-0.02,0.99,0.76,1.75,1.61,2.15L90,23.98z M83.82,14.32
		c-2.2,0.69-5.39,1.79-6.68,3.79c-0.81,1.35,0.13,3.1,1.46,3.69c1.89,0.74,3.7-0.51,5.21-1.53v-5.95 M51.95,17.36l1.33,0.54
		c-0.81,2.8-3.27,4.97-5.98,5.94c-3.14,1.14-6.85,0.26-9.27-1.91c-1.68-1.47-2.65-3.59-2.67-5.82c-0.05-3.74,1.89-7.31,5.38-8.74
		c2.05-0.89,4.97-0.95,7.08-0.12c2.85,1.05,5.03,3.68,4.95,6.75H39.15c-0.03,3.7,2.28,7.54,6.27,7.51c2.6,0,5.56-1.49,6.47-3.99
		C51.9,17.52,51.47,18.62,51.95,17.36z M43.35,8.21c-2.21,0-3.97,2-4.17,4.13l8.72,0.01C47.87,9.97,45.68,8.16,43.35,8.21
		 M87.85,4.3C89.04,4.3,90,3.34,90,2.15S89.04,0,87.85,0c-1.19,0-2.15,0.96-2.15,2.15S86.66,4.3,87.85,4.3 M87.85,0.4
		c0.97,0,1.75,0.78,1.75,1.75S88.82,3.9,87.85,3.9c-0.97,0-1.75-0.78-1.75-1.75C86.1,1.18,86.89,0.4,87.85,0.4 M88.3,3.22
		l-0.52-0.79l-0.36-0.01v0.8h-0.45V1.08c0.22,0,1.1-0.04,1.29,0.04c0.27,0.09,0.46,0.34,0.45,0.63s-0.19,0.54-0.46,0.62l0.55,0.84
		H88.3z M87.42,2.02h0.55c0.08,0.01,0.15-0.02,0.21-0.07c0.06-0.05,0.09-0.13,0.08-0.2c0-0.08-0.03-0.16-0.08-0.21
		c-0.06-0.05-0.14-0.08-0.22-0.07h-0.54V2.02z"/>
</g>
</svg>
